X: 14300
T: Galen's Arrival
R: reel
M: 4/4
K: Gmajor
DGA|:B3A BGdB|c3B cAec|Bdgd ecAG|FGAB cDdc|
B3A BGdB|c3B cAec|Bdgd ecAF|1 G2GF GDGA:|2 G2GF GABd||
|:g2gf gbag|f2fe fddB|c2cB cedc|Bdgd fgaf|
g2gf gbag|f2fe fddB|c2cB cedc|1 BGAF GABd:|2 BGAF GDGA||

